X:6163
T:Son Ar Skoff
O:england
A:pourlet
M:3/4
L:1/4
Q:190
C:trad
S:from the playing of John Skelton
D:John Skelton, "One At A Time" (Pan Records 146CD)
K:E Minor
EGB|A2 B|G2 F|E2F|G/F/ EF|G2 A|BAB|F3|G/F/Ec|B2c|AGF|E3|EGB|A2 G|B/A/ GF
|E3::
EFA|G3|EFA|G3|FGA|BcA|B2G|F3|FGA|B2A|B2G|F3|EFA|G3|F/E/DE|E3:||
W:
W: From "Falaleiro" http://home.t-online.de/home/pheld/homepage.htm


